X:39
T:Celebrated Set Of Quadrilles No.4. Le4.039
B:L.Leadley MS#4 c1850
Z:Village Music Project, 2016 Steve Mansfield
M:6/8
L:1/8
Q:3/8=110
N:* Irregular bars left by transcriber as in Mss
K:G
D | G2A D2G | B3 BAG | F2D A2F | c3 cAF |
G2A B2D | B3 BAG | E2e d2F | "*"(AG) H ||
g | fed def | g2z z2D | B,A,G, A,B,C | G,3 za>g |
fed def | g3 z2B | A2e d2F | "*" G2z !segno! ||
g | ggg ggg | ggg ggg | bbb bbb | ggg ggg |
aaa aaa | fff fff | ggg ggg | "*" g2 ||

